X:1
T:Cepta Byrne's
M:9/8
L:1/8
R:slip jig
K:Dmix
|:dBB dBc BAG|EAA cAB cde|dBB dBc BAG|ABB BAG FED:|
EBB BBB B^cd|e^cA a2g fed|g2d B2d Bcd|e2E AAG FED|
EBB BBB B^cd|e^cA a2g fed|gdd gdd Bcd|eeE AAG FED|]
